X:1
T:Huntly Lodge
T:Huntly Lodge
T:Nathaniel Gow
C:Nathaniel Gow
L:1/8
Q:1/8=128
M:4/4
K:D
V:1 treble 
V:1
|: A | F<A d>F G<B E>A | F<A d>f g/f/e/d/ c/B/A/G/ | F<A d>F G<B E>g | fa f/d/A/c/ d2 DA/G/ | %5
 F<A d>F G<B E>A | F<A d>f g>f e/4d/4c/4B/4 A/4G/4F/4E/4 | F<A d>F G<B E>g | %8
 fg/a/ f/d/A/>c/ d2 Dg | fd b>d ec a>c | dB g>f e/d/c/B/ AB/G/ | F<A d>F G<B g>e | fa Ac d2 Da/g/ | %13
 fd b>d ec a>c | dB g>f e/d/c/B/ A/B/A/G/ | F<A d>F G<B E>g | fg/a/ f/d/A/c/ d2 D :| %17

